X: 907
T: Gözlerin Mavi Mine
C: Refik Fersan
O: Turkey
F: http://compmusic.upf.edu/node/140
N: kurdilihicazkar--sarki--aydin--gozlerin_mavi--refik_fersan
N: makam= kurdilihicazkar
N: form= sarki
N: usul= aydin = 9/8
M: 9/8
L: 1/16
K: C _B _e _A 
Q: 1/4=168
%%MIDI tuningsystem comma53
z4 z4 z4 _2/4Bcd2 df | _3/4e3/2d/ c2de fg=a4g2 a2f2  | \
w:   |   | 
=ag2f f_2/4eed d4 efg2 g2 | 
w:   | 
f3/2g/ fed3/2e/ dcB4c2 d2B2  | (3agf(3edc B3/2A/AG G4 _2/4efg2 g2 | 
w:   |   | 
f3/2g/ fed3/2e/ dcB4c2 d2B2  | (3agf(3edc B3/2A/AG G4 G3/2_3/4A/_2/4Bc d2 | 
w:   |   | 
z_2/4B2cd2 df_3/4e3/2d/ c2d_2/4e fg=ag  | \
w:  Göz le rin  ma *  vi  *  *  mi *  *  *  ne    | 
bb2=a aggf fbag f_2/4eg_7/8e ed | 
w:  Vu rul *  dum  *  per *  çe *  *  *  mi  | 
d4z2 fedc BAG4z2  | z_2/4B2c d2df _3/4e3/2d/c2 d_2/4efg =ag | 
w:  ne   SAZ  |  Göz le rin  ma *  vi  *  *  mi *  *  *  ne    | 
bb2=aag gffb agf_2/4e g_7/8eed  | \
w:  Vu rul *  dum  *  per *  çe *  *  *  mi  | 
d4 z2_2/4ef g3/2f/ef g4 z2 | 
w:  ne   SAZ  | 
z2 fggf _1/4edd3/2c/ B2c3/2d/ _2/4efg2  | \
w:  Aş kın  be *  ni  *  çe *  *  vir *  *  *  di    | 
g3/2f/f3/2_1/4e/ e3/2d/dc cdB2 _e4 dc | 
w:  As *  lı *  nın  *  Ke *  re *  *  mi ne    | 
dc2BBA AGG4G2 AGF2  | dccB BAAG G4 c3/2d/_2/4ef g2 | 
w:  Kö yün  *  dil *  be *  ri  dil be *  ri    |  Çok  *  sev *  dim  *  se *  ni   SAZ  | 
z2 fggf _1/4edd3/2c/ B2c3/2d/ _2/4efg2  | \
w:  Aş kın  be *  ni  *  çe *  *  vir *  *  *  di    | 
g3/2f/f3/2_1/4e/ e3/2d/dc cdB2 _e4 dc | 
w:  As *  lı *  nın  *  Ke *  re *  *  mi ne    | 
dc2BBA AGG4G2 AGF2  | dccB BAAG G4 _2/4Bcd2 df | 
w:  Kö yün  *  dil *  be *  ri  dil be *  ri    |  Çok  *  sev *  dim  *  se *  ni   SAZ  | 
_3/4e3/2d/ c2de fg=a4g2 a2f2  | =ag2f f_2/4eed d4 efg2 g2 | 
w:   |   | 
f3/2g/ fed3/2e/ dcB4c2 d2B2  | (3agf(3edc B3/2A/AG G4 _2/4efg2 g2 | 
w:   |   | 
f3/2g/ fed3/2e/ dcB4c2 d2B2  | (3agf(3edc B3/2A/AG G4 G3/2_3/4A/_2/4Bc d2 | 
w:   |   | 
z_2/4B2cd2 df_3/4e3/2d/ c2d_2/4e fg=ag  | \
w:  Göz le rin  ma *  vi  *  *  mi *  *  *  ne    | 
bb2=a aggf fbag f_2/4eg_7/8e ed | 
w:  Vu rul *  dum  *  per *  çe *  *  *  mi  | 
d4z2 fedc BAG4z2  | z_2/4B2c d2df _3/4e3/2d/c2 d_2/4efg =ag | 
w:  ne   SAZ  |  Göz le rin  ma *  vi  *  *  mi *  *  *  ne    | 
bb2=aag gffb agf_2/4e g_7/8eed  | \
w:  Vu rul *  dum  *  per *  çe *  *  *  mi  | 
d4 z2_2/4ef g3/2f/ef g4 z2 | 
w:  ne   SAZ  | 
z2 fggf _1/4edd3/2c/ B2c3/2d/ _2/4efg2  | \
w:  Aş kın  be *  ni  *  çe *  *  vir *  *  *  di    | 
g3/2f/f3/2_1/4e/ e3/2d/dc cdB2 _e4 dc | 
w:  As *  lı *  nın  *  Ke *  re *  *  mi ne    | 
dc2BBA AGG4G2 AGF2  | dccB BAAG G4 c3/2d/_2/4ef g2 | 
w:  Kö yün  *  dil *  be *  ri  dil be *  ri    |  Çok  *  sev *  dim  *  se *  ni   SAZ  | 
z2 fggf _1/4edd3/2c/ B2c3/2d/ _2/4efg2  | \
w:  Aş kın  be *  ni  *  çe *  *  vir *  *  *  di    | 
g3/2f/f3/2_1/4e/ e3/2d/dc cdB2 _e4 dc | 
w:  As *  lı *  nın  *  Ke *  re *  *  mi ne    | 
dc2BBA AGG4G2 AGF2  | dccB BAAG G4 |
w:  Kö yün  *  dil *  be *  ri  dil be *  ri    |  Çok  *  sev *  dim  *  se *  ni    | 


